X:64
T:Belle Doette
R:Chanson de toile
M:6/8
K:Am
A/B/c/B/A A/G/ GA | cc2de2 | e/d/ef (3e/d/c/ de | e3 ez2 |
e3g ga | (3a/g/g/(3f/f/e/(3d/c/B/ B/A/ Bc | cde d/c/ B/A/G | G3 Gz2 |
A/B/c/B/A A/G/ GA | cc2de2 | e/d/ef (3e/d/c/ de | e3 ez2 |
e3g ga | (3a/g/g/f/e/(3d/c/B/ B/A/ Bc | cde d/c/ B/A/G | G3 Gz2 |
B/d/e/d/B c B/A/B/A/ | (GA2) A3 ||
ee2g ga | (3a/g/g/f/e/(3d/c/B/ B/A/ B c | cde d/c/ (3B/A/G/ | G3z3 ||
e3g ga | (3a/g/g/f/e/(3d/c/B/ B/A/ B c | cde 
d/c/ B/A/G | B/d/e/d/B c B/A/B/A/ | (G3 A) z2 |]





